svg/free/center-focus.svg

<svg version="1.1" xmlns="http://www.w3.org/2000/svg" width="24" height="24" viewBox="0 0 24 24">
<title>center-focus</title>
<path d="M2.25 21v-5.625h-1.5v5.625c0.001 1.242 1.008 2.249 2.25 2.25h5.625v-1.5h-5.625c-0.414-0-0.75-0.336-0.75-0.75v-0z"></path>
<path d="M2.25 3c0-0.414 0.336-0.75 0.75-0.75h5.625v-1.5h-5.625c-1.242 0.001-2.249 1.008-2.25 2.25v5.625h1.5z"></path>
<path d="M21 0.75h-5.625v1.5h5.625c0.414 0 0.75 0.336 0.75 0.75v5.625h1.5v-5.625c-0.001-1.242-1.008-2.249-2.25-2.25h-0z"></path>
<path d="M21.75 21c-0 0.414-0.336 0.75-0.75 0.75h-5.625v1.5h5.625c1.242-0.001 2.249-1.008 2.25-2.25v-5.625h-1.5z"></path>
<path d="M18.75 12c0-3.722-3.028-6.75-6.75-6.75s-6.75 3.028-6.75 6.75 3.028 6.75 6.75 6.75 6.75-3.028 6.75-6.75zM12 17.25c-2.899 0-5.25-2.351-5.25-5.25s2.351-5.25 5.25-5.25c2.899 0 5.25 2.351 5.25 5.25v0c-0.003 2.898-2.352 5.247-5.25 5.25h-0z"></path>
</svg>

<svg xmlns="http://www.w3.org/2000/svg" width="24" height="24" viewBox="0 0 24 24"><path d="M2.25 21v-5.625H.75V21A2.252 2.252 0 003 23.25h5.625v-1.5H3a.75.75 0 01-.75-.75zM2.25 3A.75.75 0 013 2.25h5.625V.75H3A2.252 2.252 0 00.75 3v5.625h1.5zM21 .75h-5.625v1.5H21a.75.75 0 01.75.75v5.625h1.5V3A2.252 2.252 0 0021 .75zM21.75 21a.75.75 0 01-.75.75h-5.625v1.5H21A2.252 2.252 0 0023.25 21v-5.625h-1.5zM18.75 12c0-3.722-3.028-6.75-6.75-6.75S5.25 8.278 5.25 12s3.028 6.75 6.75 6.75 6.75-3.028 6.75-6.75zM12 17.25A5.25 5.25 0 1117.25 12 5.256 5.256 0 0112 17.25z"/></svg>
